src/assets/logos/messari.svg

<svg height="49" viewBox="0 0 449 49" width="449" xmlns="http://www.w3.org/2000/svg"><path d="m36.4753377 13.1501981 12.4088487-12.9501981v37.5472552l-12.4088487 11.3140917zm-18.2237576 6.5721562 5.9818441 4.9083192 6.4270046-5.6570459v18.7736276l-12.4088487 11.3140917zm-5.8427314-6.5721562v25.5121675l-12.4088487 10.5376344v-49zm60.9869872 29.5053763h.0278225v-35.91114882h8.541517l9.4596604 15.19637802 9.4596602-15.19637802h8.541517v35.93887942h-7.873776v-23.4601018l-10.1552237 15.3350311h-.1947578l-10.0439335-15.196378v23.2937181zm68.9442311 0v-35.91114882h27.182612v7.01584602h-19.308836v7.2931523h16.999566v7.015846h-16.999566v7.5427278h19.559239v7.0435767zm71.587371.5268817c-5.453216 0-10.962077-1.9134125-15.274569-5.7679683l4.702008-5.6015846c3.255236 2.6621392 6.649585 4.3537069 10.767319 4.3537069 3.255236 0 5.202813-1.2756084 5.202813-3.3831353v-.1109225c0-1.9966044-1.252014-3.0226372-7.26168-4.5755517-7.261681-1.8579514-11.935866-3.8545558-11.935866-10.9813243v-.1109225c0-6.5166949 5.230636-10.81494056 12.603607-10.81494056 5.258458 0 9.737885 1.66383701 13.382637 4.57555176l-4.117735 5.9620827c-3.199591-2.2184494-6.343537-3.549519-9.376193-3.549519-3.060478 0-4.646362 1.3865308-4.646362 3.1335597v.1109225c0 2.3571024 1.530239 3.1335597 7.762486 4.7142048 7.317325 1.9134126 11.43506 4.5200906 11.43506 10.78721v.1109225c0 7.1544991-5.481039 11.1477079-13.243525 11.1477079zm56.702318 0c-5.453216 0-10.962077-1.9134125-15.246747-5.7679683l4.674185-5.6015846c3.255236 2.6621392 6.649585 4.3537069 10.76732 4.3537069 3.255236 0 5.202813-1.2756084 5.202813-3.3831353v-.1109225c0-1.9966044-1.252014-3.0226372-7.261681-4.5755517-7.26168-1.8579514-11.935865-3.8545558-11.935865-10.9813243v-.1109225c0-6.5166949 5.230635-10.81494056 12.603606-10.81494056 5.258458 0 9.737886 1.66383701 13.382637 4.57555176l-4.117734 5.9620827c-3.199591-2.2184494-6.343537-3.549519-9.376193-3.549519-3.060478 0-4.646363 1.3865308-4.646363 3.1335597v.1109225c0 2.3571024 1.530239 3.1335597 7.762486 4.7142048 7.317326 1.9134126 11.43506 4.5200906 11.43506 10.78721v.1109225c0 7.1544991-5.481038 11.1477079-13.243524 11.1477079zm40.56525-.5268817 15.441504-36.16072437h7.289503l15.441505 36.16072437h-8.291114l-3.283059-8.0696095h-15.246747l-3.283059 8.0696095zm14.18949-15.0299943h9.570951l-4.785476-11.6468591zm53.836597 15.0299943v-35.91114882h16.526583c4.562895 0 8.124179 1.27560838 10.489094 3.63271082 2.003223 1.9966044 3.088301 4.8251273 3.088301 8.2082626v.0831918c0 5.8234296-3.143946 9.4561404-7.734663 11.147708l8.791919 12.8392756h-9.264902l-7.734664-11.4804754h-6.232247v11.4804754zm7.929421-18.4685908h8.040712c3.839509 0 6.065311-2.0520657 6.065311-5.0747029v-.1109225c0-3.3831352-2.364915-5.1301641-6.232247-5.1301641h-7.873776zm53.920065 18.4685908v-35.91114882h7.929421v35.91114882z" fill-rule="evenodd" transform="translate(0 -.2)"/></svg>

<svg xmlns="http://www.w3.org/2000/svg" width="449" height="49" viewBox="0 0 449 49">
  <path fill-rule="evenodd" d="M36.4753377,13.1501981 L48.8841864,0.2 L48.8841864,37.7472552 L36.4753377,49.0613469 L36.4753377,13.1501981 Z M18.2515801,19.7223543 L24.2334242,24.6306735 L30.6604288,18.9736276 L30.6604288,37.7472552 L18.2515801,49.0613469 L18.2515801,19.7223543 Z M12.4088487,13.1501981 L12.4088487,38.6623656 L-4.61852778e-14,49.2 L-4.61852778e-14,0.2 L12.4088487,13.1501981 Z M73.3958359,42.6555744 L73.4236584,42.6555744 L73.4236584,6.74442558 L81.9651754,6.74442558 L91.4248358,21.9408036 L100.884496,6.74442558 L109.426013,6.74442558 L109.426013,42.683305 L101.552237,42.683305 L101.552237,19.2232032 L91.3970133,34.5582343 L91.2022555,34.5582343 L81.158322,19.3618563 L81.158322,42.6555744 L73.3958359,42.6555744 Z M142.340067,42.6555744 L142.340067,6.74442558 L169.522679,6.74442558 L169.522679,13.7602716 L150.213843,13.7602716 L150.213843,21.0534239 L167.213409,21.0534239 L167.213409,28.0692699 L150.213843,28.0692699 L150.213843,35.6119977 L169.773082,35.6119977 L169.773082,42.6555744 L142.340067,42.6555744 Z M213.927438,43.1824561 C208.474222,43.1824561 202.965361,41.2690436 198.652869,37.4144878 L203.354877,31.8129032 C206.610113,34.4750424 210.004462,36.1666101 214.122196,36.1666101 C217.377432,36.1666101 219.325009,34.8910017 219.325009,32.7834748 L219.325009,32.6725523 C219.325009,30.6759479 218.072995,29.6499151 212.063329,28.0970006 C204.801648,26.2390492 200.127463,24.2424448 200.127463,17.1156763 L200.127463,17.0047538 C200.127463,10.4880589 205.358099,6.18981324 212.73107,6.18981324 C217.989528,6.18981324 222.468955,7.85365025 226.113707,10.765365 L221.995972,16.7274477 C218.796381,14.5089983 215.652435,13.1779287 212.619779,13.1779287 C209.559301,13.1779287 207.973417,14.5644595 207.973417,16.3114884 L207.973417,16.4224109 C207.973417,18.7795133 209.503656,19.5559706 215.735903,21.1366157 C223.053228,23.0500283 227.170963,25.6567063 227.170963,31.9238257 L227.170963,32.0347482 C227.170963,39.1892473 221.689924,43.1824561 213.927438,43.1824561 Z M270.629756,43.1824561 C265.17654,43.1824561 259.667679,41.2690436 255.383009,37.4144878 L260.057194,31.8129032 C263.31243,34.4750424 266.706779,36.1666101 270.824514,36.1666101 C274.07975,36.1666101 276.027327,34.8910017 276.027327,32.7834748 L276.027327,32.6725523 C276.027327,30.6759479 274.775313,29.6499151 268.765646,28.0970006 C261.503966,26.2390492 256.829781,24.2424448 256.829781,17.1156763 L256.829781,17.0047538 C256.829781,10.4880589 262.060416,6.18981324 269.433387,6.18981324 C274.691845,6.18981324 279.171273,7.85365025 282.816024,10.765365 L278.69829,16.7274477 C275.498699,14.5089983 272.354753,13.1779287 269.322097,13.1779287 C266.261619,13.1779287 264.675734,14.5644595 264.675734,16.3114884 L264.675734,16.4224109 C264.675734,18.7795133 266.205973,19.5559706 272.43822,21.1366157 C279.755546,23.0500283 283.87328,25.6567063 283.87328,31.9238257 L283.87328,32.0347482 C283.87328,39.1892473 278.392242,43.1824561 270.629756,43.1824561 Z M311.195006,42.6555744 L326.63651,6.49485003 L333.926013,6.49485003 L349.367518,42.6555744 L341.076404,42.6555744 L337.793345,34.5859649 L322.546598,34.5859649 L319.263539,42.6555744 L311.195006,42.6555744 Z M325.384496,27.6255801 L334.955447,27.6255801 L330.169971,15.978721 L325.384496,27.6255801 Z M379.221093,42.6555744 L379.221093,6.74442558 L395.747676,6.74442558 C400.310571,6.74442558 403.871855,8.02003396 406.23677,10.3771364 C408.239993,12.3737408 409.325071,15.2022637 409.325071,18.585399 L409.325071,18.6685908 C409.325071,24.4920204 406.181125,28.1247312 401.590408,29.8162988 L410.382327,42.6555744 L401.117425,42.6555744 L393.382761,31.175099 L387.150514,31.175099 L387.150514,42.6555744 L379.221093,42.6555744 Z M387.150514,24.1869836 L395.191226,24.1869836 C399.030735,24.1869836 401.256537,22.1349179 401.256537,19.1122807 L401.256537,19.0013582 C401.256537,15.618223 398.891622,13.8711941 395.02429,13.8711941 L387.150514,13.8711941 L387.150514,24.1869836 Z M441.070579,42.6555744 L441.070579,6.74442558 L449,6.74442558 L449,42.6555744 L441.070579,42.6555744 Z" transform="translate(0 -.2)"/>
</svg>
